X: 501
T: Portobello Hornpipe
S: https://lesters-tune-a-day.blogspot.co.uk/2018/05/tune-501-portobello-hornpipe.html
S: William Irwin MS (1838, Langdale, Cumbria)
S: Joseph Barnes MS (1762, Carlisle, Cumbria).
Z: 2018 John Chambers <jc:trillian.mit.edu>
L: 1/8
M: 4/4
K: G
(3DEF |\
"G"G2 G>A "(D7)"G2 d>e | "G"d>c B>A "(D7)"G>A B>G | "Am"A2 A2 A2 G>A | "Em"B>A B>G "C"E2 "D7"(3DEF | 
"G"G2 G>A "(D7)"G2 d>e | "G"d>c B>A "(D7)"G>A B>c | "G"d>B G>B "D7"c>A F>G | A2 G2 "G"G2 :| 
|: B>c |\
"G"d2 d>e "D7"d2 e>f | "G"g>f e>d "C"e4 | e>d c>B "Am"c>B A>G | "D7"F>G A>F D2 B2 | 
"C"c2 e>c "G"B2 d>B | "Am"A>B c>A "D7"G>A B>c | "G"d>B G>B "D7"c>A F>G | A2 G2 "G"G2 :| 
